; generated by PrusaSlicer 2.2.0+win64 on 2022-11-03 at 13:13:32 UTC

; 

; external perimeters extrusion width = 0.45mm
; perimeters extrusion width = 0.45mm
; infill extrusion width = 0.45mm
; solid infill extrusion width = 0.45mm
; top infill extrusion width = 0.40mm
; first layer extrusion width = 0.42mm

M73 P0 R56
M73 Q0 S56
M201 X1000 Y1000 Z200 E5000 ; sets maximum accelerations, mm/sec^2
M203 X200 Y200 Z12 E120 ; sets maximum feedrates, mm/sec
M204 P1250 R1250 T1250 ; sets acceleration (P, T) and retract acceleration (R), mm/sec^2
M205 X8.00 Y8.00 Z0.40 E4.50 ; sets the jerk limits, mm/sec
M205 S0 T0 ; sets the minimum extruding and travel feed rate, mm/sec
M107
M862.3 P "MK3S" ; printer model check
M862.1 P0.4 ; nozzle diameter check
M115 U3.11.0 ; tell printer latest fw version
G90 ; use absolute coordinates
M83 ; extruder relative mode
M104 S215 ; set extruder temp
M140 S60 ; set bed temp
M190 S60 ; wait for bed temp
M109 S215 ; wait for extruder temp
G28 W ; home all without mesh bed level
G80 ; mesh bed leveling
G1 Y-3.0 F1000.0 ; go outside print area
G92 E0.0
G1 X60.0 E9.0 F1000.0 ; intro line
M73 Q0 S56
M73 P0 R56
G1 X100.0 E12.5 F1000.0 ; intro line
G92 E0.0
M221 S95

; Don't change E values below. Excessive value can damage the printer.
M907 E430 ; set extruder motor current
G21 ; set units to millimeters
G90 ; use absolute coordinates
M83 ; use relative distances for extrusion
M900 K0.05 ; Filament gcode LA 1.5
M900 K30 ; Filament gcode LA 1.0
;BEFORE_LAYER_CHANGE
G92 E0.0
;0.2


G1 E-0.80000 F2100.00000
G1 Z0.400 F10800.000
;AFTER_LAYER_CHANGE
;0.2
G1 X92.388 Y77.940
G1 Z0.200
G1 E0.80000 F2100.00000
M204 S1000
G1 F1200.000
G1 X94.109 Y75.990 E0.08156
G1 X95.937 Y74.160 E0.08108
G1 X98.042 Y72.304 E0.08800
G1 X100.093 Y70.715 E0.08132
G1 X102.291 Y69.221 E0.08335
G1 X104.651 Y67.830 E0.08588
G1 X106.958 Y66.655 E0.08118
G1 X109.398 Y65.600 E0.08335
G1 X111.976 Y64.675 E0.08588
G1 X114.463 Y63.954 E0.08118
G1 X117.061 Y63.373 E0.08347
G1 X119.686 Y62.957 E0.08335
G1 X122.265 Y62.712 E0.08120
G1 X125.005 Y62.623 E0.08598
G1 X127.659 Y62.706 E0.08323
G1 X130.237 Y62.949 E0.08120
G1 X132.942 Y63.374 E0.08586
G1 X135.537 Y63.954 E0.08335
G1 X138.028 Y64.676 E0.08132
G1 X140.669 Y65.627 E0.08803
G1 X143.045 Y66.657 E0.08118
G1 X145.417 Y67.865 E0.08347
G1 X147.705 Y69.219 E0.08335
G1 X149.848 Y70.673 E0.08120
G1 X152.065 Y72.393 E0.08800
G1 X154.010 Y74.109 E0.08132
G1 X155.840 Y75.937 E0.08108
G1 X157.696 Y78.042 E0.08800
G1 X159.285 Y80.093 E0.08132
G1 X160.779 Y82.291 E0.08335
G1 X162.170 Y84.651 E0.08588
G1 X163.345 Y86.958 E0.08118
G1 X164.400 Y89.398 E0.08335
G1 X165.325 Y91.976 E0.08588
G1 X166.046 Y94.463 E0.08118
G1 X166.627 Y97.061 E0.08347
G1 X167.043 Y99.686 E0.08335
G1 X167.288 Y102.265 E0.08120
G1 X167.377 Y105.002 E0.08586
G1 X167.294 Y107.659 E0.08335
G1 X167.051 Y110.237 E0.08120
G1 X166.626 Y112.942 E0.08586
G1 X166.046 Y115.537 E0.08335
G1 X165.324 Y118.028 E0.08132
G1 X164.373 Y120.669 E0.08803
G1 X163.343 Y123.045 E0.08118
G1 X162.138 Y125.410 E0.08323
G1 X160.783 Y127.702 E0.08347
G1 X159.468 Y129.640 E0.07344
G1 X157.612 Y132.060 E0.09563
G1 X155.891 Y134.010 E0.08156
G1 X154.063 Y135.840 E0.08108
G1 X151.958 Y137.696 E0.08800
G1 X149.907 Y139.285 E0.08132
G1 X147.709 Y140.779 E0.08335
G1 X145.349 Y142.170 E0.08588
G1 X143.042 Y143.345 E0.08118
G1 X140.602 Y144.400 E0.08335
G1 X138.024 Y145.325 E0.08588
G1 X135.537 Y146.046 E0.08118
G1 X132.939 Y146.627 E0.08347
G1 X130.314 Y147.043 E0.08335
G1 X127.735 Y147.288 E0.08120
G1 X124.998 Y147.377 E0.08586
G1 X122.341 Y147.294 E0.08335
G1 X119.763 Y147.051 E0.08120
G1 X117.058 Y146.626 E0.08586
G1 X114.463 Y146.046 E0.08335
G1 X111.972 Y145.324 E0.08132
G1 X109.331 Y144.373 E0.08803
G1 X106.955 Y143.343 E0.08118
G1 X104.583 Y142.135 E0.08347
G1 X102.295 Y140.781 E0.08335
G1 X100.152 Y139.327 E0.08120
G1 X97.935 Y137.607 E0.08800
G1 X95.990 Y135.891 E0.08132
G1 X94.160 Y134.063 E0.08108
G1 X92.304 Y131.958 E0.08800
G1 X90.715 Y129.907 E0.08132
G1 X89.221 Y127.709 E0.08335
G1 X87.830 Y125.349 E0.08588
G1 X86.655 Y123.042 E0.08118
G1 X85.600 Y120.602 E0.08335
G1 X84.675 Y118.024 E0.08588
G1 X83.954 Y115.537 E0.08118
G1 X83.373 Y112.939 E0.08347
G1 X82.957 Y110.314 E0.08335
G1 X82.712 Y107.735 E0.08120
G1 X82.623 Y104.998 E0.08586
G1 X82.706 Y102.341 E0.08335
G1 X82.949 Y99.763 E0.08120
G1 X83.374 Y97.058 E0.08586
G1 X83.954 Y94.463 E0.08335
G1 X84.676 Y91.972 E0.08132
G1 X85.627 Y89.331 E0.08803
G1 X86.657 Y86.955 E0.08118
G1 X87.862 Y84.590 E0.08323
G1 X89.217 Y82.298 E0.08347
G1 X90.532 Y80.360 E0.07344
G1 X92.352 Y77.988 E0.09375
; printing object top_v2.stl id:0 copy 0
G1 F8640.000
G1 X94.109 Y75.990 E-0.61446
G1 X94.555 Y75.544 E-0.14554
G1 E-0.04000 F2100.00000
G1 Z0.600 F10800.000
G1 X123.331 Y103.433
G1 Z0.200
G1 E0.80000 F2100.00000
G1 F1200.000
G1 X123.654 Y103.148 E0.01351
G1 X124.025 Y102.928 E0.01351
G1 X124.422 Y102.785 E0.01322
G1 X124.713 Y102.730 E0.00929
G1 X124.998 Y102.711 E0.00897
G1 X125.428 Y102.750 E0.01353
G1 X125.843 Y102.871 E0.01355
G1 X126.227 Y103.067 E0.01351
G1 X126.567 Y103.331 E0.01351
G1 X126.852 Y103.654 E0.01351
G1 X127.067 Y104.017 E0.01322
G1 X127.176 Y104.293 E0.00930
G1 X127.250 Y104.580 E0.00930
G1 X127.290 Y105.000 E0.01322
G1 X127.250 Y105.420 E0.01322
G1 X127.176 Y105.707 E0.00930
G1 X127.067 Y105.983 E0.00930
G1 X126.852 Y106.346 E0.01322
G1 X126.567 Y106.669 E0.01351
G1 X126.227 Y106.933 E0.01351
G1 X125.843 Y107.129 E0.01351
G1 X125.429 Y107.249 E0.01351
G1 X125.000 Y107.290 E0.01351
G1 X124.571 Y107.249 E0.01351
G1 X124.157 Y107.129 E0.01351
G1 X123.781 Y106.938 E0.01322
G1 X123.541 Y106.763 E0.00930
G1 X123.325 Y106.560 E0.00930
G1 X123.067 Y106.227 E0.01322
G1 X122.871 Y105.843 E0.01351
G1 X122.751 Y105.429 E0.01351
G1 X122.710 Y105.000 E0.01351
G1 X122.751 Y104.571 E0.01351
G1 X122.871 Y104.157 E0.01351
G1 X123.067 Y103.773 E0.01351
G1 X123.294 Y103.480 E0.01163
G1 X123.592 Y103.711 F10800.000
G1 F1200.000
G1 X123.877 Y103.454 E0.01203
G1 X124.186 Y103.271 E0.01128
G1 X124.522 Y103.150 E0.01117
G1 X124.760 Y103.105 E0.00762
G1 X124.993 Y103.090 E0.00732
G1 X125.358 Y103.123 E0.01147
G1 X125.703 Y103.223 E0.01129
G1 X126.024 Y103.386 E0.01128
G1 X126.308 Y103.607 E0.01128
G1 X126.546 Y103.877 E0.01128
G1 X126.727 Y104.183 E0.01117
G1 X126.817 Y104.410 E0.00763
G1 X126.877 Y104.645 E0.00763
G1 X126.911 Y105.000 E0.01117
G1 X126.877 Y105.355 E0.01117
G1 X126.817 Y105.590 E0.00763
G1 X126.727 Y105.817 E0.00763
G1 X126.546 Y106.123 E0.01117
G1 X126.308 Y106.393 E0.01128
G1 X126.024 Y106.614 E0.01128
G1 X125.703 Y106.777 E0.01128
G1 X125.358 Y106.877 E0.01128
G1 X125.000 Y106.911 E0.01128
G1 X124.642 Y106.877 E0.01128
G1 X124.297 Y106.777 E0.01128
G1 X123.979 Y106.615 E0.01117
G1 X123.782 Y106.472 E0.00763
G1 X123.605 Y106.306 E0.00763
G1 X123.386 Y106.024 E0.01117
G1 X123.223 Y105.703 E0.01128
G1 X123.123 Y105.358 E0.01128
G1 X123.089 Y105.000 E0.01128
G1 X123.123 Y104.642 E0.01128
G1 X123.223 Y104.297 E0.01128
G1 X123.386 Y103.976 E0.01128
G1 X123.555 Y103.758 E0.00863
G1 X123.478 Y103.345 F10800.000
G1 F8640.000
G1 X123.877 Y103.454 E-0.10225
G1 X124.186 Y103.271 E-0.08305
G1 X124.522 Y103.150 E-0.08228
G1 X124.760 Y103.105 E-0.05613
G1 X124.993 Y103.090 E-0.05390
G1 X125.358 Y103.123 E-0.08448
G1 X125.703 Y103.223 E-0.08314
G1 X126.024 Y103.386 E-0.08305
G1 X126.308 Y103.607 E-0.08305
G1 X126.448 Y103.765 E-0.04865
G1 E-0.04000 F2100.00000
G1 Z0.600 F10800.000
G1 X118.999 Y106.713
G1 Z0.200
G1 E0.80000 F2100.00000
G1 F1200.000
G1 X119.382 Y107.651 E0.03176
G1 X119.755 Y108.329 E0.02427
G1 X119.974 Y108.652 E0.01224
G1 X120.213 Y108.960 E0.01224
G1 X120.747 Y109.529 E0.02446
G1 X121.348 Y110.026 E0.02446
G1 X122.007 Y110.444 E0.02446
G1 X122.713 Y110.776 E0.02446
G1 X123.080 Y110.908 E0.01224
G1 X123.455 Y111.017 E0.01224
G1 X124.221 Y111.164 E0.02446
G1 X125.000 Y111.213 E0.02446
G1 X125.779 Y111.164 E0.02446
G1 X126.164 Y111.102 E0.01224
G1 X126.920 Y110.908 E0.02447
G1 X127.645 Y110.621 E0.02445
G1 X127.993 Y110.444 E0.01224
G1 X128.652 Y110.026 E0.02446
G1 X129.253 Y109.529 E0.02446
G1 X129.529 Y109.253 E0.01224
G1 X130.026 Y108.652 E0.02446
G1 X130.245 Y108.329 E0.01224
G1 X130.618 Y107.651 E0.02427
G1 X131.001 Y106.713 E0.03176
G1 X141.717 Y106.713 E0.33599
G1 X141.490 Y108.146 E0.04548
G1 X141.260 Y109.175 E0.03307
G1 X140.966 Y110.188 E0.03307
G1 X140.609 Y111.180 E0.03307
G1 X140.190 Y112.148 E0.03307
G1 X139.711 Y113.088 E0.03309
G1 X139.151 Y114.029 E0.03431
G1 X138.581 Y114.867 E0.03180
G1 X137.935 Y115.701 E0.03309
G1 X137.209 Y116.520 E0.03431
G1 X136.492 Y117.238 E0.03180
G1 X135.701 Y117.935 E0.03307
G1 X134.867 Y118.581 E0.03307
G1 X134.029 Y119.151 E0.03180
G1 X133.088 Y119.711 E0.03431
G1 X132.148 Y120.190 E0.03309
G1 X131.180 Y120.609 E0.03307
G1 X130.188 Y120.966 E0.03307
G1 X129.175 Y121.260 E0.03307
G1 X128.146 Y121.490 E0.03307
G1 X127.104 Y121.655 E0.03307
G1 X126.054 Y121.754 E0.03307
G1 X125.000 Y121.787 E0.03307
G1 X123.946 Y121.754 E0.03307
G1 X122.896 Y121.655 E0.03307
G1 X121.854 Y121.490 E0.03307
G1 X120.825 Y121.260 E0.03307
G1 X119.812 Y120.966 E0.03307
G1 X118.820 Y120.609 E0.03307
G1 X117.852 Y120.190 E0.03307
G1 X116.913 Y119.711 E0.03307
G1 X116.005 Y119.174 E0.03307
G1 X115.166 Y118.604 E0.03180
G1 X114.300 Y117.935 E0.03431
G1 X113.508 Y117.238 E0.03309
G1 X112.762 Y116.492 E0.03307
G1 X112.065 Y115.701 E0.03307
G1 X111.419 Y114.867 E0.03307
G1 X110.826 Y113.995 E0.03307
G1 X110.289 Y113.087 E0.03307
G1 X109.810 Y112.148 E0.03307
G1 X109.391 Y111.180 E0.03307
G1 X109.034 Y110.188 E0.03307
G1 X108.740 Y109.175 E0.03307
G1 X108.510 Y108.146 E0.03307
G1 X108.283 Y106.713 E0.04548
G1 X118.939 Y106.713 E0.33411
G1 X118.746 Y107.090 F10800.000
G1 F1200.000
G1 X119.038 Y107.808 E0.02431
G1 X119.225 Y108.175 E0.01291
G1 X119.436 Y108.531 E0.01298
G1 X119.669 Y108.873 E0.01298
G1 X119.922 Y109.200 E0.01298
G1 X120.196 Y109.511 E0.01298
G1 X120.489 Y109.804 E0.01298
G1 X120.800 Y110.078 E0.01298
G1 X121.127 Y110.331 E0.01298
G1 X121.469 Y110.564 E0.01298
G1 X121.825 Y110.775 E0.01298
G1 X122.194 Y110.963 E0.01298
G1 X122.574 Y111.127 E0.01298
G1 X122.964 Y111.267 E0.01298
G1 X123.361 Y111.383 E0.01298
G1 X123.765 Y111.473 E0.01298
G1 X124.174 Y111.538 E0.01298
G1 X124.586 Y111.577 E0.01298
G1 X125.000 Y111.590 E0.01298
G1 X125.414 Y111.577 E0.01298
G1 X125.826 Y111.538 E0.01298
G1 X126.235 Y111.473 E0.01298
G1 X126.631 Y111.385 E0.01272
G1 X127.036 Y111.267 E0.01324
G1 X127.426 Y111.127 E0.01298
G1 X127.806 Y110.963 E0.01298
G1 X128.175 Y110.775 E0.01298
G1 X128.531 Y110.564 E0.01298
G1 X128.873 Y110.331 E0.01298
G1 X129.200 Y110.078 E0.01298
G1 X129.511 Y109.804 E0.01298
G1 X129.804 Y109.511 E0.01298
G1 X130.078 Y109.200 E0.01298
G1 X130.331 Y108.873 E0.01298
G1 X130.564 Y108.531 E0.01298
G1 X130.775 Y108.175 E0.01298
G1 X130.962 Y107.808 E0.01291
G1 X131.254 Y107.090 E0.02431
G1 X141.276 Y107.090 E0.31421
G1 X141.120 Y108.075 E0.03127
G1 X140.895 Y109.081 E0.03232
G1 X140.607 Y110.071 E0.03232
G1 X140.258 Y111.041 E0.03232
G1 X139.848 Y111.987 E0.03232
G1 X139.380 Y112.906 E0.03233
G1 X138.833 Y113.826 E0.03357
G1 X138.276 Y114.646 E0.03107
G1 X137.644 Y115.460 E0.03233
G1 X136.934 Y116.262 E0.03357
G1 X136.234 Y116.963 E0.03107
G1 X135.460 Y117.644 E0.03232
G1 X134.646 Y118.276 E0.03232
G1 X133.826 Y118.833 E0.03107
G1 X132.906 Y119.380 E0.03357
G1 X131.987 Y119.848 E0.03233
G1 X131.041 Y120.258 E0.03232
G1 X130.071 Y120.607 E0.03232
G1 X129.081 Y120.895 E0.03232
G1 X128.075 Y121.120 E0.03232
G1 X127.731 Y121.174 E0.01091
G1 X127.057 Y121.281 E0.02141
G1 X126.030 Y121.378 E0.03232
G1 X125.000 Y121.410 E0.03232
G1 X123.970 Y121.378 E0.03232
G1 X122.943 Y121.281 E0.03232
G1 X122.269 Y121.174 E0.02141
G1 X121.925 Y121.120 E0.01091
G1 X120.919 Y120.895 E0.03232
G1 X119.929 Y120.607 E0.03232
G1 X118.959 Y120.258 E0.03232
G1 X118.013 Y119.848 E0.03232
G1 X117.094 Y119.380 E0.03232
G1 X116.207 Y118.856 E0.03232
G1 X115.387 Y118.299 E0.03107
G1 X114.540 Y117.644 E0.03357
G1 X113.766 Y116.963 E0.03233
G1 X113.037 Y116.234 E0.03232
G1 X112.356 Y115.460 E0.03232
G1 X111.724 Y114.646 E0.03232
G1 X111.144 Y113.793 E0.03232
G1 X110.620 Y112.906 E0.03232
G1 X110.152 Y111.987 E0.03232
G1 X109.742 Y111.041 E0.03232
G1 X109.393 Y110.071 E0.03232
G1 X109.105 Y109.081 E0.03232
G1 X108.880 Y108.075 E0.03232
G1 X108.724 Y107.090 E0.03127
G1 X118.686 Y107.090 E0.31232
G1 X119.129 Y106.975 F10800.000
G1 F8640.000
G1 X119.038 Y107.808 E-0.18467
G1 X119.225 Y108.175 E-0.09508
G1 X119.436 Y108.531 E-0.09559
G1 X119.669 Y108.873 E-0.09559
G1 X119.922 Y109.200 E-0.09559
G1 X120.196 Y109.511 E-0.09559
G1 X120.489 Y109.804 E-0.09559
G1 X120.496 Y109.810 E-0.00230
G1 E-0.04000 F2100.00000
G1 Z0.600 F10800.000
G1 X103.975 Y113.592
G1 Z0.200
G1 E0.80000 F2100.00000
G1 F1200.000
G1 X104.118 Y113.989 E0.01322
G1 X104.173 Y114.280 E0.00930
G1 X104.191 Y114.567 E0.00901
G1 X104.173 Y114.854 E0.00901
G1 X104.118 Y115.145 E0.00930
G1 X103.975 Y115.542 E0.01322
G1 X103.755 Y115.913 E0.01351
G1 X103.470 Y116.236 E0.01351
G1 X103.130 Y116.500 E0.01351
G1 X102.746 Y116.696 E0.01351
G1 X102.332 Y116.816 E0.01351
G1 X101.903 Y116.857 E0.01351
G1 X101.474 Y116.816 E0.01351
G1 X101.060 Y116.696 E0.01351
G1 X100.675 Y116.500 E0.01355
G1 X100.335 Y116.234 E0.01353
G1 X100.140 Y116.025 E0.00897
G1 X99.965 Y115.786 E0.00929
G1 X99.774 Y115.410 E0.01322
G1 X99.654 Y114.996 E0.01351
G1 X99.613 Y114.567 E0.01351
G1 X99.654 Y114.138 E0.01351
G1 X99.774 Y113.724 E0.01351
G1 X99.970 Y113.340 E0.01351
G1 X100.234 Y113.000 E0.01351
G1 X100.557 Y112.715 E0.01351
G1 X100.928 Y112.495 E0.01351
G1 X101.325 Y112.352 E0.01322
G1 X101.616 Y112.297 E0.00929
G1 X101.901 Y112.278 E0.00897
G1 X102.331 Y112.318 E0.01353
G1 X102.746 Y112.438 E0.01355
G1 X103.130 Y112.634 E0.01351
G1 X103.470 Y112.898 E0.01351
G1 X103.755 Y113.221 E0.01351
G1 X103.944 Y113.540 E0.01163
G1 X103.620 Y113.732 F10800.000
G1 F1200.000
G1 X103.753 Y114.089 E0.01192
G1 X103.798 Y114.328 E0.00763
G1 X103.814 Y114.567 E0.00752
G1 X103.798 Y114.807 E0.00752
G1 X103.753 Y115.045 E0.00763
G1 X103.632 Y115.381 E0.01117
G1 X103.449 Y115.690 E0.01128
G1 X103.211 Y115.960 E0.01128
G1 X102.927 Y116.181 E0.01128
G1 X102.607 Y116.344 E0.01128
G1 X102.261 Y116.444 E0.01128
G1 X101.903 Y116.478 E0.01128
G1 X101.545 Y116.444 E0.01128
G1 X101.200 Y116.344 E0.01128
G1 X100.879 Y116.180 E0.01129
G1 X100.590 Y115.955 E0.01147
G1 X100.431 Y115.785 E0.00732
G1 X100.288 Y115.588 E0.00762
G1 X100.126 Y115.271 E0.01117
G1 X100.026 Y114.925 E0.01128
G1 X99.992 Y114.567 E0.01128
G1 X100.026 Y114.209 E0.01128
G1 X100.126 Y113.864 E0.01128
G1 X100.289 Y113.543 E0.01128
G1 X100.510 Y113.259 E0.01128
G1 X100.780 Y113.021 E0.01128
G1 X101.089 Y112.838 E0.01128
G1 X101.425 Y112.717 E0.01117
G1 X101.663 Y112.672 E0.00762
G1 X101.896 Y112.657 E0.00732
G1 X102.261 Y112.690 E0.01147
G1 X102.607 Y112.790 E0.01129
G1 X102.927 Y112.954 E0.01128
G1 X103.211 Y113.174 E0.01128
G1 X103.449 Y113.444 E0.01128
G1 X103.589 Y113.681 E0.00863
G1 X103.999 Y113.761 F10800.000
G1 F8640.000
G1 X103.753 Y114.089 E-0.10148
G1 X103.798 Y114.328 E-0.05616
G1 X103.814 Y114.567 E-0.05540
G1 X103.798 Y114.807 E-0.05540
G1 X103.753 Y115.045 E-0.05616
G1 X103.632 Y115.381 E-0.08229
G1 X103.449 Y115.690 E-0.08305
G1 X103.211 Y115.960 E-0.08305
G1 X102.927 Y116.181 E-0.08305
G1 X102.607 Y116.344 E-0.08305
G1 X102.520 Y116.369 E-0.02089
G1 E-0.04000 F2100.00000
G1 Z0.600 F10800.000
G1 X95.597 Y106.635
G1 Z0.200
G1 E0.80000 F2100.00000
G1 F1200.000
G1 X95.227 Y106.933 E0.01491
G1 X94.843 Y107.129 E0.01351
G1 X94.429 Y107.249 E0.01351
G1 X94.000 Y107.290 E0.01351
G1 X93.571 Y107.249 E0.01351
G1 X93.157 Y107.129 E0.01351
G1 X92.773 Y106.933 E0.01351
G1 X92.440 Y106.675 E0.01322
G1 X92.237 Y106.459 E0.00930
G1 X92.062 Y106.219 E0.00930
G1 X91.871 Y105.843 E0.01322
G1 X91.751 Y105.429 E0.01351
G1 X91.710 Y105.000 E0.01351
G1 X91.751 Y104.571 E0.01351
G1 X91.871 Y104.157 E0.01351
G1 X92.067 Y103.773 E0.01351
G1 X92.331 Y103.433 E0.01351
G1 X92.654 Y103.148 E0.01351
G1 X93.025 Y102.928 E0.01351
